X: 67
T: ROY'S WIFE
%R: strathspey
B: Jean White "100 Popular Hornpipes, Reels, Jigs and Country Dances", Boston 1880 p.29
F: http://www.loc.gov/resource/sm1880.09124.0#seq-1
Z: 2014 John Chambers <jc:trillian.mit.edu>
M: C|
L: 1/16
K: A
% - - - - - - - - - - - - - - - - - - - - - - - - - - - - -
f2 !segno!|\
ec3c3B c3Bcf3 | ec2c2A B3ABf3 |\
ec3B3A a3bc'3b | bagf fedc B3AB"^D.S."c3 :|
|:\
e2fg a2c'2 babc' a3e | e2fg a2c2 B3ABc3 |\
e2fg a2c'2 c'bd'c' b2ab | c'3ba3c B3ABc3 :|
% - - - - - - - - - - - - - - - - - - - - - - - - - - - - -

%%sep 1 1 500
%%sep 1 1 500
